X: 23
T: Now pray don't be Stingy
%R: jig
B: "Le Sylphe, Twenty Four Country Dances with Figures for the Year 1818", Button & Whitaker, p.12 #1
F: http://www.vwml.org/browse/browse-collections-dance-tune-books/browse-button1818
Z: 2014 John Chambers <jc:trillian.mit.edu>
N: The Figures by Mr WILSON.
M: 6/8
L: 1/8
K: F
% - - - - - - - - - - - - - - - - - - - - - - - - - - - - -
[|\
f2a c2e | f2a c2e | f2a c'2a | bab g2e |\
f2a c2e | f2a d2b | a2f cde | f3- f3 |]
[|\
e2c g3 | fef def | e2c c=Bc | d=BG Ggf |\
e2c g3 | fef def | ege fd=B | c_ba gf"_D.C."e |]
% - - - - - - - - - - Dance description - - - - - - - - - -
%%center SINGLE FIGURE        (Tune play'd straight thro' & Da Capo)
%%begintext align
%% Cast off 2 Cu: & back again |. hands across with 2d Cu: & back
%% again |. down the mid: up again & turn your partner |. .
%%endtext
%%center DOUBLE FIGURE        (Tune play'd twice thro' with Da Capo)
%%begintext align
%% Set & change places with 2d Cu: set & back again |.
%% chain figure 6 round |. down the mid:
%% up again lead thro' the top Cu: |. turn corners |.
%% the double triangle |. & lead outsides |. .
%%endtext
%%sep 1 1 450

%%sep 1 1 500
%%sep 1 1 500

